X:46.2
T:Ridees \`a 6 temps: Tune 2
R:Breton
M:2/4
L:1/8
G:sax
P:soprano: 4x (B music harmony = g6 | a6 | ...)
K:Am
|:"Am"AG A"F"B | c2 Bc | "G"dc B2| "Am"AG A"F"B | c2 Bc | "G"dc B2:|
|:"F"c2A2| "G"GA Bd| c"G"B A>pB |"Dm"c2A2| "Em"GA Bd|1c"Em"B AB:|2cB "Am"A2||

